libs/ui/packages/crypto-icons/src/svg/EXP.svg

<svg width="24" height="24" viewBox="0 0 24 24" fill="none">
<path fill-rule="evenodd" clip-rule="evenodd" d="M19.5 11.0378C19.497 11.067 19.4925 11.0955 19.4925 11.1248C19.4887 12.0398 19.485 12.9555 19.4835 13.8713L19.4805 15.7515C19.4805 15.8115 19.4753 15.8715 19.4715 15.9465C19.4385 15.9315 19.4145 15.9218 19.392 15.909L15.9015 13.9628C15.8392 13.9283 15.834 13.8975 15.864 13.836C16.4588 12.615 16.461 11.391 15.8752 10.167C15.8475 10.1085 15.8527 10.0793 15.9127 10.0463L19.4047 8.0865C19.434 8.07 19.4677 8.06175 19.5 8.04975V11.0378ZM12.225 3.75C12.2835 3.78525 12.3412 3.82275 12.4012 3.8565L19.188 7.67025C19.2135 7.6845 19.2375 7.70025 19.2728 7.72125C19.2413 7.7415 19.2203 7.7565 19.197 7.76925L15.7335 9.7035C15.6428 9.75375 15.6435 9.753 15.5835 9.6675C14.8155 8.59125 13.7625 7.97625 12.4245 7.82025C12.3847 7.81528 12.3446 7.81278 12.3045 7.81275C12.234 7.81275 12.207 7.78575 12.207 7.7115C12.2062 6.95175 12.2018 6.19125 12.1995 5.4315L12.1973 3.85725C12.1973 3.82125 12.2055 3.786 12.21 3.75H12.225ZM11.76 20.25C11.7345 20.2313 11.7112 20.2103 11.685 20.1952L4.84725 16.3515C4.815 16.3335 4.78425 16.314 4.74 16.2885C4.77 16.2683 4.7895 16.2525 4.812 16.2397C5.9595 15.5985 7.107 14.958 8.2545 14.3153C8.3235 14.2762 8.35575 14.2913 8.3985 14.3505C9.1155 15.345 10.095 15.933 11.3243 16.1332C11.4495 16.1535 11.5777 16.1632 11.7045 16.1693C11.7765 16.1722 11.805 16.1917 11.805 16.2667C11.8042 16.9395 11.8073 17.6122 11.8095 18.2843L11.8133 20.1937C11.8133 20.2125 11.808 20.2313 11.805 20.25H11.76ZM4.5 15.3375C4.50375 15.315 4.51125 15.2917 4.512 15.2685L4.515 14.3212L4.52025 12.201L4.53 8.85675L4.53375 8.136C4.53375 8.115 4.53675 8.094 4.539 8.06025C4.572 8.076 4.596 8.08575 4.6185 8.0985C5.76 8.736 6.90075 9.3735 8.04375 10.0095C8.1105 10.0462 8.1195 10.0747 8.0865 10.1445C7.4865 11.3752 7.4895 12.6075 8.0865 13.8397C8.13525 13.9387 8.13675 13.938 8.03925 13.9928C6.89325 14.6377 5.74725 15.2812 4.6005 15.924C4.57125 15.9405 4.533 15.942 4.5 15.9503V15.3383V15.3375ZM14.6047 14.64C14.727 14.2102 14.7668 13.7775 14.7397 13.338C14.7083 12.7995 14.5747 12.288 14.2943 11.8185C13.9718 11.277 13.5052 10.8848 12.9368 10.5998C12.7868 10.524 12.7703 10.5623 12.8595 10.3748C13.0612 9.9525 13.4145 9.69 13.8495 9.522C14.1524 9.41153 14.4708 9.34928 14.793 9.3375C14.8385 9.33941 14.8814 9.35875 14.913 9.3915C15.4534 9.95493 15.8043 10.6732 15.9165 11.4457C16.2037 13.401 14.9295 15.2362 12.951 15.7222C10.7557 16.2622 8.529 14.9107 8.073 12.7642C7.647 10.755 8.934 8.81175 10.854 8.29875C12.2962 7.914 13.5758 8.22075 14.6955 9.17625L14.8223 9.28425L14.8065 9.30825C14.6962 9.29475 14.5868 9.27825 14.4765 9.26775C13.7917 9.20325 13.1183 9.24825 12.465 9.4725C11.6632 9.73791 10.9914 10.2965 10.584 11.0363C10.524 11.1428 10.5195 11.1435 10.404 11.1038C10.2559 11.0518 10.1225 10.9651 10.0147 10.851C9.80133 10.6297 9.64014 10.3634 9.543 10.0717C9.45525 9.81675 9.39075 9.55425 9.31575 9.2955C9.30975 9.27525 9.30525 9.25425 9.28725 9.2325C9.27675 9.2925 9.26475 9.351 9.25575 9.411C9.24675 9.471 9.23925 9.531 9.23325 9.591C9.162 10.2615 9.20025 10.9215 9.432 11.5612C9.72 12.3593 10.2623 12.9338 11.0543 13.2833C11.1578 13.329 11.1578 13.3298 11.1023 13.4242C10.809 13.9222 10.3492 14.1727 9.7815 14.2582C9.5175 14.298 9.2535 14.2823 8.98425 14.2628C9.009 14.2725 9.033 14.2837 9.05775 14.2927C10.3552 14.739 11.7803 14.5388 12.8535 13.4032C13.1234 13.1143 13.3594 12.7955 13.557 12.453C13.608 12.3645 13.6118 12.3638 13.6943 12.4237C14.046 12.6803 14.2552 13.0312 14.3993 13.425C14.5335 13.7872 14.5868 14.1637 14.5995 14.547C14.6002 14.5778 14.6025 14.6085 14.6047 14.6392V14.64ZM19.3057 16.299L12.2085 20.2358C12.2048 20.1945 12.1995 20.169 12.1995 20.1442C12.1995 18.8467 12.1995 17.5493 12.198 16.2518C12.198 16.194 12.2153 16.173 12.2775 16.1677C13.6575 16.0537 14.7517 15.4493 15.555 14.3505C15.6248 14.2538 15.624 14.253 15.7275 14.3107L19.2098 16.242C19.2368 16.257 19.2637 16.2743 19.3057 16.299ZM11.8043 3.777C11.8065 3.819 11.8088 3.8445 11.8088 3.87C11.8088 5.15025 11.8087 6.4305 11.8102 7.71C11.8102 7.77 11.8012 7.8 11.7277 7.80525C10.3193 7.90725 9.2055 8.517 8.3895 9.6375C8.325 9.726 8.3265 9.72675 8.232 9.67425L4.84125 7.79175C4.8015 7.76925 4.76475 7.74225 4.7265 7.71675C4.7655 7.68975 4.8015 7.659 4.8435 7.63575L11.676 3.84375C11.7143 3.82275 11.7533 3.804 11.8035 3.777H11.8043Z" fill="#FFAA5C"/>
</svg>

<svg width="24" height="24" viewBox="0 0 24 24" fill="none"><path fill="#ffaa5c" fill-rule="evenodd" d="M19.5 11.038q-.006.043-.008.087l-.009 2.746-.003 1.88c0 .06-.005.12-.009.196q-.046-.02-.079-.038l-3.49-1.946c-.063-.035-.068-.065-.038-.127q.891-1.832.011-3.669c-.027-.059-.022-.088.038-.12l3.492-1.96c.029-.017.063-.025.095-.037zM12.225 3.75l.176.107 6.787 3.813c.026.014.05.03.085.051-.032.02-.053.035-.076.048l-3.463 1.935c-.091.05-.09.049-.15-.037q-1.152-1.613-3.16-1.847a1 1 0 0 0-.12-.007c-.07 0-.097-.027-.097-.101q-.002-1.14-.008-2.28l-.002-1.575c0-.036.009-.071.013-.107zm-.465 16.5c-.025-.019-.049-.04-.075-.055l-6.838-3.843-.107-.064c.03-.02.05-.035.072-.048q1.721-.961 3.443-1.925c.068-.039.1-.024.143.036.718.994 1.697 1.582 2.926 1.782q.19.028.38.036c.072.003.101.023.101.098q0 1.009.005 2.017l.003 1.91q-.002.027-.008.056zM4.5 15.338c.004-.023.011-.046.012-.07l.003-.947.005-2.12.01-3.344.004-.721c0-.021.003-.042.005-.076l.08.038q1.711.957 3.425 1.911c.066.037.075.066.042.136-.6 1.23-.597 2.463 0 3.695.05.099.05.098-.047.153q-1.719.967-3.438 1.931c-.03.017-.068.018-.101.026zm10.105-.698c.122-.43.162-.863.135-1.302a3.3 3.3 0 0 0-.446-1.52c-.322-.541-.789-.933-1.357-1.218-.15-.076-.167-.038-.077-.225.201-.422.555-.685.99-.853.302-.11.62-.173.943-.184a.18.18 0 0 1 .12.054c.54.563.891 1.281 1.003 2.054.288 1.955-.986 3.79-2.965 4.276-2.195.54-4.422-.811-4.878-2.958-.426-2.009.861-3.952 2.781-4.465 1.442-.385 2.722-.078 3.842.877l.126.108-.015.024c-.11-.013-.22-.03-.33-.04-.685-.065-1.359-.02-2.012.204a3.35 3.35 0 0 0-1.881 1.564c-.06.107-.064.107-.18.068a1 1 0 0 1-.39-.253 2.1 2.1 0 0 1-.471-.78c-.088-.254-.152-.517-.227-.775-.006-.02-.01-.042-.029-.063l-.031.178q-.014.09-.023.18c-.071.67-.033 1.33.199 1.97q.433 1.198 1.622 1.722c.104.046.104.047.048.141-.293.498-.753.749-1.32.834-.264.04-.528.024-.798.005l.074.03c1.297.446 2.722.246 3.796-.89q.406-.434.703-.95c.051-.088.055-.09.137-.03.352.257.561.608.705 1.002.135.362.188.739.2 1.122zm4.7 1.659-7.096 3.937c-.004-.041-.01-.067-.01-.092l-.001-3.892c0-.058.017-.079.08-.084q2.071-.17 3.277-1.817c.07-.097.069-.098.172-.04l3.483 1.931zm-7.5-12.522c.002.042.004.067.004.093l.001 3.84c0 .06-.009.09-.082.095q-2.114.153-3.338 1.832c-.065.089-.064.09-.158.037l-3.39-1.882q-.059-.036-.115-.075c.038-.027.074-.058.116-.081l6.833-3.792.127-.067z" clip-rule="evenodd"/></svg>
